static/img/olake/potential-3.svg

<svg width="201" height="155" viewBox="0 0 201 155" fill="none" xmlns="http://www.w3.org/2000/svg">
<path d="M73.6658 30.0207V38.9321C73.6658 41.0044 71.9859 42.6843 69.9137 42.6843H18.3214C16.2491 42.6843 14.5692 44.3642 14.5692 46.4364V55.3478" stroke="#2E2E2E" stroke-width="0.938041" stroke-linecap="round"/>
<path d="M73.668 30.0205V38.9319C73.668 41.0042 75.3479 42.6841 77.4201 42.6841H92.9191M92.9191 42.6841V55.3476M92.9191 42.6841H129.012C131.085 42.6841 132.765 44.364 132.765 46.4362V55.3476" stroke="#2E2E2E" stroke-width="0.938041" stroke-linecap="round"/>
<rect x="13.6338" width="124.759" height="30.0173" rx="7.50433" fill="#2E2E2E"/>
<rect x="0.5" y="54.4061" width="28.1412" height="30.0173" rx="7.50433" fill="#2E2E2E"/>
<rect x="118.697" y="54.4062" width="29.0793" height="30.0173" rx="7.50433" fill="#2E2E2E"/>
<path d="M15.5127 84.4268V99.6884C15.5127 101.761 17.1926 103.441 19.2649 103.441H44.592C46.6642 103.441 48.3441 105.12 48.3441 107.193V125.701" stroke="#2E2E2E" stroke-width="0.938041" stroke-linecap="round"/>
<path d="M93.3643 84.4268V105.533C93.3643 107.605 95.0442 109.285 97.1164 109.285H138.39C140.463 109.285 142.142 110.965 142.142 113.037V127.577" stroke="#2E2E2E" stroke-width="0.938041" stroke-linecap="round"/>
<path d="M133.215 84.4268L132.835 105.298C132.797 107.383 134.467 109.099 136.552 109.118L181.578 109.524C183.637 109.543 185.296 111.217 185.296 113.276V127.577" stroke="#2E2E2E" stroke-width="0.938041" stroke-linecap="round"/>
<rect x="14.5693" y="124.756" width="64.7249" height="30.0173" rx="7.50433" fill="#193AE6"/>
<rect x="129.009" y="124.756" width="28.1412" height="30.0173" rx="7.50433" fill="#2E2E2E"/>
<rect x="171.217" y="124.756" width="29.0793" height="30.0173" rx="7.50433" fill="#616161"/>
<rect x="78.3604" y="54.4062" width="29.0793" height="30.0173" rx="7.50433" fill="#616161"/>
</svg>

<svg xmlns="http://www.w3.org/2000/svg" width="201" height="155" fill="none" viewBox="0 0 201 155"><path stroke="#2e2e2e" stroke-linecap="round" stroke-width=".938" d="M73.666 30.02v8.912a3.75 3.75 0 0 1-3.752 3.752H18.32a3.75 3.75 0 0 0-3.752 3.752v8.912M73.668 30.02v8.912a3.75 3.75 0 0 0 3.752 3.752h15.5m0 0v12.664m0-12.664h36.092a3.75 3.75 0 0 1 3.753 3.752v8.912"/><rect width="124.759" height="30.017" x="13.634" fill="#2e2e2e" rx="7.504"/><rect width="28.141" height="30.017" x=".5" y="54.406" fill="#2e2e2e" rx="7.504"/><rect width="29.079" height="30.017" x="118.697" y="54.406" fill="#2e2e2e" rx="7.504"/><path stroke="#2e2e2e" stroke-linecap="round" stroke-width=".938" d="M15.513 84.427v15.261a3.75 3.75 0 0 0 3.752 3.753h25.327a3.75 3.75 0 0 1 3.752 3.752v18.508M93.364 84.427v21.106a3.75 3.75 0 0 0 3.752 3.752h41.274a3.75 3.75 0 0 1 3.752 3.752v14.54"/><path stroke="#2e2e2e" stroke-linecap="round" stroke-width=".938" d="m133.215 84.427-.38 20.871a3.75 3.75 0 0 0 3.717 3.82l45.026.406a3.75 3.75 0 0 1 3.718 3.752v14.301"/><rect width="64.725" height="30.017" x="14.569" y="124.756" fill="#193ae6" rx="7.504"/><rect width="28.141" height="30.017" x="129.009" y="124.756" fill="#2e2e2e" rx="7.504"/><rect width="29.079" height="30.017" x="171.217" y="124.756" fill="#616161" rx="7.504"/><rect width="29.079" height="30.017" x="78.36" y="54.406" fill="#616161" rx="7.504"/></svg>
